img/pay_wrapper-sistem1.svg

<svg width="51" height="20" viewBox="0 0 51 20" fill="none" xmlns="http://www.w3.org/2000/svg">
<g clip-path="url(#clip0_2342_62036)">
<path d="M9.26576 2.5785C8.67982 3.25404 7.74232 3.78687 6.80482 3.71075C6.68763 2.79734 7.14662 1.82683 7.68373 1.2274C8.26966 0.532826 9.29505 0.038059 10.1251 0C10.2228 0.951475 9.84193 1.88392 9.26576 2.5785ZM10.1154 3.89153C8.75794 3.81541 7.59583 4.6432 6.9513 4.6432C6.29701 4.6432 5.31068 3.92959 4.23646 3.94862C2.83997 3.96765 1.54115 4.73834 0.828256 5.96575C-0.636587 8.42055 0.447397 12.0552 1.86341 14.0533C2.55677 15.0428 3.38685 16.1275 4.4806 16.0894C5.51576 16.0514 5.92591 15.4329 7.17591 15.4329C8.43568 15.4329 8.79701 16.0894 9.89076 16.0704C11.0236 16.0514 11.7365 15.0809 12.4298 14.0913C13.2208 12.9686 13.5431 11.8744 13.5626 11.8173C13.5431 11.7983 11.3751 10.9895 11.3556 8.55376C11.3361 6.5176 13.0646 5.5471 13.1427 5.49001C12.1661 4.08183 10.6427 3.92959 10.1154 3.89153ZM17.9572 1.13225V15.9657H20.3204V10.8944H23.5919C26.5802 10.8944 28.6798 8.89629 28.6798 6.00381C28.6798 3.11132 26.6193 1.13225 23.6701 1.13225H17.9572ZM20.3204 3.07326H23.0451C25.0958 3.07326 26.2677 4.13892 26.2677 6.01332C26.2677 7.88773 25.0958 8.96289 23.0353 8.96289H20.3204V3.07326ZM32.9962 16.0799C34.4806 16.0799 35.8576 15.3473 36.4826 14.1865H36.5314V15.9657H38.7189V8.5823C38.7189 6.44148 36.9611 5.06185 34.256 5.06185C31.7462 5.06185 29.8908 6.46051 29.8224 8.38249H31.9513C32.1271 7.46908 32.9962 6.86965 34.1876 6.86965C35.6329 6.86965 36.4435 7.52617 36.4435 8.73454V9.55281L33.4943 9.72407C30.7501 9.88582 29.2658 10.98 29.2658 12.883C29.2658 14.8049 30.799 16.0799 32.9962 16.0799ZM33.631 14.3197C32.3712 14.3197 31.5704 13.7298 31.5704 12.8259C31.5704 11.8934 32.3419 11.3511 33.8165 11.2655L36.4435 11.1037V11.941C36.4435 13.3302 35.2326 14.3197 33.631 14.3197ZM41.6388 20C43.9435 20 45.0275 19.1437 45.9747 16.5461L50.1251 5.20457H47.7228L44.9396 13.9677H44.8908L42.1076 5.20457H39.6369L43.6408 16.0038L43.4259 16.6603C43.0646 17.7736 42.4786 18.2017 41.4337 18.2017C41.2482 18.2017 40.8868 18.1827 40.7404 18.1637V19.9429C40.8771 19.981 41.463 20 41.6388 20Z" fill="black"/>
</g>
<defs>
<clipPath id="clip0_2342_62036">
<rect width="50" height="20" fill="white" transform="translate(0.125)"/>
</clipPath>
</defs>
</svg>

<svg width="51" height="20" viewBox="0 0 51 20" fill="none" xmlns="http://www.w3.org/2000/svg"><g clip-path="url(#a)"><path d="M9.266 2.579c-.586.675-1.524 1.208-2.461 1.132-.117-.914.342-1.884.879-2.484C8.27.533 9.295.038 10.125 0c.098.951-.283 1.884-.86 2.579zm.85 1.313c-1.358-.077-2.52.751-3.165.751-.654 0-1.64-.713-2.715-.694-1.396.019-2.695.79-3.408 2.017-1.465 2.455-.38 6.09 1.035 8.087.694.99 1.524 2.075 2.618 2.036 1.035-.038 1.445-.656 2.695-.656 1.26 0 1.621.656 2.715.637 1.133-.019 1.845-.99 2.539-1.979.79-1.122 1.113-2.217 1.133-2.274-.02-.019-2.188-.828-2.207-3.263-.02-2.036 1.709-3.007 1.787-3.064-.977-1.408-2.5-1.56-3.028-1.598zm7.841-2.76v14.834h2.363v-5.072h3.272c2.988 0 5.088-1.998 5.088-4.89 0-2.893-2.06-4.872-5.01-4.872h-5.713zm2.363 1.941h2.725c2.05 0 3.223 1.066 3.223 2.94 0 1.875-1.172 2.95-3.233 2.95H20.32v-5.89zM32.996 16.08c1.485 0 2.862-.733 3.487-1.893h.048v1.779h2.188V8.582c0-2.14-1.758-3.52-4.463-3.52-2.51 0-4.365 1.399-4.434 3.32h2.13c.175-.913 1.044-1.512 2.236-1.512 1.445 0 2.255.656 2.255 1.865v.818l-2.949.171c-2.744.162-4.228 1.256-4.228 3.159 0 1.922 1.533 3.197 3.73 3.197zm.635-1.76c-1.26 0-2.06-.59-2.06-1.494 0-.933.77-1.475 2.245-1.56l2.627-.162v.837c0 1.39-1.21 2.379-2.812 2.379zM41.639 20c2.304 0 3.389-.856 4.336-3.454l4.15-11.341h-2.402l-2.783 8.763h-.05l-2.782-8.763h-2.471l4.004 10.799-.215.656c-.361 1.114-.947 1.542-1.992 1.542a8 8 0 0 1-.694-.038v1.779c.137.038.723.057.899.057z" fill="#000"/></g><defs><clipPath id="a"><path fill="#fff" transform="translate(.125)" d="M0 0h50v20H0z"/></clipPath></defs></svg>
